assets/svg/1F639.svg

<svg xmlns="http://www.w3.org/2000/svg" viewBox="0 0 64 64" enable-background="new 0 0 64 64"><path fill="#7094a6" d="m49.841 10.618c-.99 4.153 9.03 12.821 11.95 13.519 2.916.697 1.561-8.192 1.426-13.172-.142-5.126-.016-10.312-2.933-11.01-2.911-.698-9.456 6.509-10.443 10.662"/><path fill="#eda75a" d="m50.33 13.856c-.856 3.609 7.847 11.135 10.377 11.742 2.532.607 1.356-7.112 1.238-11.438-.121-4.452-.012-8.956-2.543-9.559-2.531-.607-8.215 5.65-9.07 9.255"/><path fill="#7094a6" d="m14.14 10.618c.991 4.153-9.04 12.821-11.949 13.519-2.917.697-1.564-8.192-1.427-13.172.137-5.127.016-10.312 2.928-11.01 2.917-.698 9.462 6.509 10.448 10.662"/><path fill="#eda75a" d="m13.863 13.856c.861 3.609-7.846 11.135-10.376 11.742-2.532.607-1.357-7.112-1.239-11.438.122-4.452.016-8.956 2.547-9.559 2.528-.607 8.211 5.65 9.07 9.255"/><path fill="#87b1c1" d="M63.646,31.458c0,17.621-14.245,31.9-31.823,31.9S0,49.078,0,31.458C0,13.841,14.244,1.575,31.822,1.575     S63.646,13.841,63.646,31.458z"/><path fill="#7094a6" d="m15.14 40.788c-5.641-12.13-5.283-24.15-.185-34.946-8.876 4.827-14.96 14.469-14.96 25.619 0 17.617 14.245 31.9 31.823 31.9.314 0 .621-.039.932-.047-7.296-6.159-13.444-13.562-17.61-22.526"/><g fill="#394c54"><path d="m26.328 32.14c0-2.589 2.197-2.542 5.196-2.542 2.999 0 5.66-.047 5.66 2.542 0 2.592-2.429 4.693-5.428 4.693-2.995 0-5.428-2.101-5.428-4.693"/><path d="m56.621 38.945c0 11.07-11.12 20.05-24.824 20.05-13.695 0-24.817-8.984-24.817-20.05"/></g><path fill="#fff" d="m53.37 40.32c0 4.543-9.683 8.227-21.616 8.227-11.93 0-21.613-3.684-21.613-8.227"/><g fill="#394c54"><path d="m45.2 43.36c0 4.916-6.262 8.905-13.984 8.905-7.715 0-13.983-3.989-13.983-8.905"/><path d="m21.955 8.541c-3.899 4.169-8.278 7.368-13.538 9.603-1.199.508-.271 2.301.914 1.796 5.415-2.301 9.954-5.607 13.968-9.897.882-.942-.458-2.447-1.344-1.502"/><path d="m8.917 20.787l0 0c-.841 0-1.604-.646-1.777-1.505-.162-.792.224-1.513.981-1.836 4.99-2.116 9.332-5.201 13.284-9.421.823-.878 2.304-.532 2.783.579.291.674.161 1.422-.338 1.955-4.216 4.507-8.864 7.802-14.222 10.08-.234.098-.472.149-.711.149m13.67-11.789c-4.18 4.441-8.691 7.64-13.875 9.843-.084.351.11.497.326.402 5.161-2.191 9.644-5.371 13.71-9.716.037-.043.132-.142.055-.319-.059-.139-.173-.21-.216-.21"/><path d="m41.69 8.541c3.899 4.169 8.278 7.368 13.538 9.603 1.198.508.271 2.301-.916 1.796-5.413-2.301-9.953-5.607-13.966-9.897-.882-.942.459-2.447 1.344-1.502"/><path d="m54.729 20.787c-.239 0-.481-.051-.711-.149-5.358-2.278-10.01-5.572-14.222-10.08-.499-.532-.628-1.281-.34-1.955.481-1.111 1.959-1.461 2.785-.579 3.95 4.22 8.293 7.305 13.279 9.421.761.323 1.146 1.044.985 1.836-.173.859-.935 1.505-1.776 1.505m-13.679-11.749c-.089 0-.165.067-.209.169-.075.177.017.276.056.319 4.066 4.346 8.549 7.525 13.71 9.716l.122.032c.142 0 .271-.154.299-.292-5.279-2.345-9.789-5.544-13.887-9.926-.032-.011-.062-.018-.091-.018"/></g><g fill="#778b91"><path d="m24.714 35.05c-.043.759-.564 1.346-1.166 1.312l-16.963-.962c-.6-.033-1.053-.676-1.012-1.436l0 0c.045-.757.568-1.346 1.167-1.312l16.963.961c.602.036 1.054.678 1.01 1.437l0 0"/><path d="m24.05 38.23c.124.716-.179 1.363-.674 1.45l-14.02 2.438c-.496.086-.999-.424-1.123-1.14l0 0c-.124-.713.179-1.363.674-1.449l14.02-2.438c.495-.086.999.426 1.123 1.139l0 0"/><path d="m40.793 34.745c.044.759.565 1.346 1.167 1.312l16.963-.961c.6-.034 1.054-.676 1.01-1.437l0 0c-.043-.757-.565-1.346-1.165-1.312l-16.963.963c-.601.035-1.053.677-1.012 1.435l0 0"/><path d="m41.461 37.932c-.122.715.18 1.363.676 1.449l14.02 2.438c.494.087.998-.424 1.122-1.139l0 0c.123-.713-.18-1.363-.675-1.45l-14.02-2.438c-.496-.086-.998.426-1.124 1.14l0 0"/></g><g fill="#394c54"><path d="m27.21 27.427c-.224 0-4.312-1.572-8.439-1.572-3.687 0-7.405 1.572-8.439 1.572-.896 0-1.23-1.041-.688-1.663 4.937-5.713 13.313-5.713 18.254 0 .538.622.204 1.663-.688 1.663"/><path d="m52.11 27.427c-.225 0-4.312-1.572-8.44-1.572-3.686 0-7.404 1.572-8.438 1.572-.896 0-1.23-1.041-.688-1.663 4.937-5.713 13.312-5.713 18.254 0 .539.622.204 1.663-.688 1.663"/></g><path fill="#28a6de" d="m4.75 32.13c-3.215 3.412-3.545 8.328-.743 10.981 2.803 2.65 7.679 2.029 10.898-1.387 3.208-3.416 8.86-13.982 6.05-16.634-2.805-2.652-12.999 3.62-16.208 7.04"/><path fill="#7de2f9" d="m20.746 24.889c-3.105-2.185-12.932 3.885-16.09 7.244-3.241 3.44-3.573 8.394-.75 11.06 1.289 1.216 3.01 1.714 4.813 1.607.005-8.08 4.771-15.663 12.03-19.915"/><path fill="#28a6de" d="m59.29 32.11c3.217 3.412 3.549 8.33.742 10.981-2.801 2.651-7.677 2.031-10.896-1.387-3.206-3.416-8.86-13.982-6.05-16.634 2.804-2.652 13 3.622 16.208 7.04"/><path fill="#7de2f9" d="m43.3 24.867c3.106-2.183 12.931 3.889 16.09 7.246 3.239 3.44 3.573 8.393.751 11.06-1.289 1.218-3.01 1.714-4.812 1.607-.012-8.08-4.776-15.661-12.03-19.917"/></svg>

<?xml version="1.0" encoding="UTF-8" standalone="no"?>
<!-- Generator: Adobe Illustrator 16.0.0, SVG Export Plug-In . SVG Version: 6.00 Build 0)  -->

<svg
   xmlns:dc="http://purl.org/dc/elements/1.1/"
   xmlns:cc="http://creativecommons.org/ns#"
   xmlns:rdf="http://www.w3.org/1999/02/22-rdf-syntax-ns#"
   xmlns:svg="http://www.w3.org/2000/svg"
   xmlns="http://www.w3.org/2000/svg"
   xmlns:sodipodi="http://sodipodi.sourceforge.net/DTD/sodipodi-0.dtd"
   xmlns:inkscape="http://www.inkscape.org/namespaces/inkscape"
   version="1.1"
   id="Layer_1"
   x="0px"
   y="0px"
   width="64px"
   height="64px"
   viewBox="0 0 64 64"
   enable-background="new 0 0 64 64"
   xml:space="preserve"
   inkscape:version="0.48.5 r10040"
   sodipodi:docname="1F639.svg"
   inkscape:export-filename="D:\TESTINGEMOJI\SVGTEST\1F639.png"
   inkscape:export-xdpi="90"
   inkscape:export-ydpi="90"><metadata
   id="metadata7998"><rdf:RDF><cc:Work
       rdf:about=""><dc:format>image/svg+xml</dc:format><dc:type
         rdf:resource="http://purl.org/dc/dcmitype/StillImage" /><dc:title></dc:title></cc:Work></rdf:RDF></metadata><defs
   id="defs7996" /><sodipodi:namedview
   pagecolor="#ffffff"
   bordercolor="#666666"
   borderopacity="1"
   objecttolerance="10"
   gridtolerance="10"
   guidetolerance="10"
   inkscape:pageopacity="0"
   inkscape:pageshadow="2"
   inkscape:window-width="640"
   inkscape:window-height="480"
   id="namedview7994"
   showgrid="false"
   inkscape:zoom="3.6875"
   inkscape:cx="32"
   inkscape:cy="32"
   inkscape:window-x="582"
   inkscape:window-y="353"
   inkscape:window-maximized="0"
   inkscape:current-layer="Layer_1" />
<g
   id="g7858">
	<g
   id="g7860">
		<g
   id="g7862">
			<path
   fill="#7094A6"
   d="M49.841,10.618c-0.99,4.153,9.033,12.821,11.95,13.519c2.916,0.697,1.561-8.192,1.426-13.172     c-0.142-5.126-0.016-10.312-2.933-11.009C57.373-0.742,50.828,6.465,49.841,10.618z"
   id="path7864" />
		</g>
	</g>
	<g
   id="g7866">
		<g
   id="g7868">
			<path
   fill="#EDA75A"
   d="M50.332,13.856c-0.856,3.609,7.847,11.135,10.377,11.742c2.532,0.607,1.356-7.112,1.238-11.438     c-0.121-4.452-0.012-8.956-2.543-9.559C56.873,3.994,51.189,10.251,50.332,13.856z"
   id="path7870" />
		</g>
	</g>
	<g
   id="g7872">
		<g
   id="g7874">
			<path
   fill="#7094A6"
   d="M14.142,10.618c0.991,4.153-9.037,12.821-11.949,13.519c-2.917,0.697-1.564-8.192-1.427-13.172     C0.903,5.838,0.782,0.653,3.694-0.044C6.611-0.742,13.156,6.465,14.142,10.618z"
   id="path7876" />
		</g>
	</g>
	<g
   id="g7878">
		<g
   id="g7880">
			<path
   fill="#EDA75A"
   d="M13.863,13.856c0.861,3.609-7.846,11.135-10.376,11.742C0.955,26.205,2.13,18.486,2.248,14.16     C2.37,9.708,2.264,5.204,4.795,4.601C7.323,3.994,13.006,10.251,13.863,13.856z"
   id="path7882" />
		</g>
	</g>
	<g
   id="g7884">
		<g
   id="g7886">
			<path
   fill="#87B1C1"
   d="M63.646,31.458c0,17.621-14.245,31.9-31.823,31.9S0,49.078,0,31.458C0,13.841,14.244,1.575,31.822,1.575     S63.646,13.841,63.646,31.458z"
   id="path7888" />
		</g>
	</g>
	<g
   id="g7890">
		<g
   id="g7892">
			<g
   id="g7894">
				<path
   fill="#7094A6"
   d="M15.145,40.788C9.504,28.656,9.862,16.634,14.96,5.842C6.084,10.669,0,20.311,0,31.461      c0,17.617,14.245,31.9,31.823,31.9c0.314,0,0.621-0.039,0.932-0.047C25.459,57.155,19.311,49.752,15.145,40.788z"
   id="path7896" />
			</g>
		</g>
	</g>
	<g
   id="g7898">
		<g
   id="g7900">
			<path
   fill="#394C54"
   d="M26.328,32.137c0-2.589,2.197-2.542,5.196-2.542c2.999,0,5.66-0.047,5.66,2.542     c0,2.592-2.429,4.693-5.428,4.693C28.761,36.83,26.328,34.729,26.328,32.137z"
   id="path7902" />
		</g>
	</g>
	<g
   id="g7904">
		<g
   id="g7906">
			<path
   fill="#394C54"
   d="M56.621,38.945C56.621,50.016,45.504,59,31.797,59C18.102,59,6.98,50.016,6.98,38.945"
   id="path7908" />
		</g>
	</g>
	<g
   id="g7910">
		<g
   id="g7912">
			<path
   fill="#FFFFFF"
   d="M53.37,40.319c0,4.543-9.683,8.227-21.616,8.227c-11.93,0-21.613-3.684-21.613-8.227"
   id="path7914" />
		</g>
	</g>
	<g
   id="g7916">
		<g
   id="g7918">
			<path
   fill="#394C54"
   d="M45.203,43.356c0,4.916-6.262,8.905-13.984,8.905c-7.715,0-13.983-3.989-13.983-8.905"
   id="path7920" />
		</g>
	</g>
	<g
   id="g7922">
		<g
   id="g7924">
			<g
   id="g7926">
				<path
   fill="#394C54"
   d="M21.955,8.541c-3.899,4.169-8.278,7.368-13.538,9.603c-1.199,0.508-0.271,2.301,0.914,1.796      c5.415-2.301,9.954-5.607,13.968-9.897C24.181,9.101,22.841,7.596,21.955,8.541z"
   id="path7928" />
			</g>
			<g
   id="g7930">
				<path
   fill="#394C54"
   d="M8.917,20.787L8.917,20.787c-0.841,0-1.604-0.646-1.777-1.505c-0.162-0.792,0.224-1.513,0.981-1.836      c4.99-2.116,9.332-5.201,13.284-9.421c0.823-0.878,2.304-0.532,2.783,0.579c0.291,0.674,0.161,1.422-0.338,1.955      c-4.216,4.507-8.864,7.802-14.222,10.079C9.394,20.736,9.156,20.787,8.917,20.787z M22.587,8.998      c-4.18,4.441-8.691,7.64-13.875,9.843c-0.084,0.351,0.11,0.497,0.326,0.402c5.161-2.191,9.644-5.371,13.71-9.716      c0.037-0.043,0.132-0.142,0.055-0.319C22.744,9.069,22.63,8.998,22.587,8.998z"
   id="path7932" />
			</g>
		</g>
		<g
   id="g7934">
			<g
   id="g7936">
				<path
   fill="#394C54"
   d="M41.69,8.541c3.899,4.169,8.278,7.368,13.538,9.603c1.198,0.508,0.271,2.301-0.916,1.796      c-5.413-2.301-9.953-5.607-13.966-9.897C39.464,9.101,40.805,7.596,41.69,8.541z"
   id="path7938" />
			</g>
			<g
   id="g7940">
				<path
   fill="#394C54"
   d="M54.729,20.787c-0.239,0-0.481-0.051-0.711-0.149C48.66,18.36,44.01,15.066,39.796,10.559      c-0.499-0.532-0.628-1.281-0.34-1.955c0.481-1.111,1.959-1.461,2.785-0.579c3.95,4.22,8.293,7.305,13.279,9.421      c0.761,0.323,1.146,1.044,0.985,1.836C56.332,20.141,55.57,20.787,54.729,20.787z M41.05,9.038      c-0.089,0-0.165,0.067-0.209,0.169c-0.075,0.177,0.017,0.276,0.056,0.319c4.066,4.346,8.549,7.525,13.71,9.716l0.122,0.032      c0.142,0,0.271-0.154,0.299-0.292c-5.279-2.345-9.789-5.544-13.887-9.926C41.109,9.045,41.079,9.038,41.05,9.038z"
   id="path7942" />
			</g>
		</g>
	</g>
	<g
   id="g7944">
		<path
   fill="#778B91"
   d="M24.714,35.049c-0.043,0.759-0.564,1.346-1.166,1.312L6.585,35.399c-0.6-0.033-1.053-0.676-1.012-1.436    l0,0c0.045-0.757,0.568-1.346,1.167-1.312l16.963,0.961C24.305,33.648,24.757,34.29,24.714,35.049L24.714,35.049z"
   id="path7946" />
		<path
   fill="#778B91"
   d="M24.046,38.234c0.124,0.716-0.179,1.363-0.674,1.45L9.355,42.122c-0.496,0.086-0.999-0.424-1.123-1.14l0,0    c-0.124-0.713,0.179-1.363,0.674-1.449l14.017-2.438C23.418,37.009,23.922,37.521,24.046,38.234L24.046,38.234z"
   id="path7948" />
		<path
   fill="#778B91"
   d="M40.793,34.745c0.044,0.759,0.565,1.346,1.167,1.312l16.963-0.961c0.6-0.034,1.054-0.676,1.01-1.437l0,0    c-0.043-0.757-0.565-1.346-1.165-1.312L41.805,33.31C41.204,33.345,40.752,33.987,40.793,34.745L40.793,34.745z"
   id="path7950" />
		<path
   fill="#778B91"
   d="M41.461,37.932c-0.122,0.715,0.18,1.363,0.676,1.449l14.018,2.438c0.494,0.087,0.998-0.424,1.122-1.139    l0,0c0.123-0.713-0.18-1.363-0.675-1.45l-14.017-2.438C42.089,36.706,41.587,37.218,41.461,37.932L41.461,37.932z"
   id="path7952" />
	</g>
	<g
   id="g7954">
		<g
   id="g7956">
			<path
   fill="#394C54"
   d="M27.21,27.427c-0.224,0-4.312-1.572-8.439-1.572c-3.687,0-7.405,1.572-8.439,1.572     c-0.896,0-1.23-1.041-0.688-1.663c4.937-5.713,13.313-5.713,18.254,0C28.436,26.386,28.102,27.427,27.21,27.427z"
   id="path7958" />
		</g>
	</g>
	<g
   id="g7960">
		<g
   id="g7962">
			<path
   fill="#394C54"
   d="M52.107,27.427c-0.225,0-4.312-1.572-8.44-1.572c-3.686,0-7.404,1.572-8.438,1.572     c-0.896,0-1.23-1.041-0.688-1.663c4.937-5.713,13.312-5.713,18.254,0C53.334,26.386,52.999,27.427,52.107,27.427z"
   id="path7964" />
		</g>
	</g>
	<g
   id="g7966">
		<g
   id="g7968">
			<g
   id="g7970">
				<path
   fill="#28A6DE"
   d="M4.75,32.129c-3.215,3.412-3.545,8.328-0.743,10.981c2.803,2.65,7.679,2.029,10.898-1.387      c3.208-3.416,8.86-13.982,6.053-16.634C18.153,22.437,7.959,28.709,4.75,32.129z"
   id="path7972" />
			</g>
		</g>
		<g
   id="g7974">
			<g
   id="g7976">
				<path
   fill="#7DE2F9"
   d="M20.746,24.889c-3.105-2.185-12.932,3.885-16.09,7.244c-3.241,3.44-3.573,8.394-0.75,11.064      c1.289,1.216,3.011,1.714,4.813,1.607C8.724,36.728,13.49,29.141,20.746,24.889z"
   id="path7978" />
			</g>
		</g>
	</g>
	<g
   id="g7980">
		<g
   id="g7982">
			<g
   id="g7984">
				<path
   fill="#28A6DE"
   d="M59.293,32.109c3.217,3.412,3.549,8.33,0.742,10.981c-2.801,2.651-7.677,2.031-10.896-1.387      c-3.206-3.416-8.86-13.982-6.054-16.634C45.889,22.417,56.085,28.691,59.293,32.109z"
   id="path7986" />
			</g>
		</g>
		<g
   id="g7988">
			<g
   id="g7990">
				<path
   fill="#7DE2F9"
   d="M43.3,24.867c3.106-2.183,12.931,3.889,16.089,7.246c3.239,3.44,3.573,8.393,0.751,11.064      c-1.289,1.218-3.012,1.714-4.812,1.607C55.316,36.708,50.552,29.123,43.3,24.867z"
   id="path7992" />
			</g>
		</g>
	</g>
</g>
</svg>
